X: 43558
T: Youghal, The
R: waltz
M: 3/4
K: Gmajor
|:BA|G2 GA FA|G2 GA FA|GF GA Bc|de dc BA|
G2GA FA|G2 GA FA|GB Ac FA|G4 :|
|:GF|E2EG (FG)|D2DG (FG)|E2 EG (FG)|D4F2|
GF GA Bc|de dB cA|G2G2F2|G4 :|
|:D2|G2G2B2|d2d2g2|A2A2d2|B2G2D2|
G2G2B2|d2d2g2|A2 AG AB|G4 :|
|:d2|gf ed cB|ed cB AG|GF GA Bc|B2A2f2|
gf ed cB|ed cB AG|F/G/A/B/ cA GF|G4 :|

